X: 645
T: John O'Reilly the Active
C:O'Carolan
B:O'Neill's 645
Z: 1997 by John Chambers <jc@trillian.mit.edu>
N:
N:The 2nd part has a repeat at the end but not at the beginning.
M:6/8
L:1/8
K:G
D \
| DGG (GF>)G | cAG F2(G/A/) | (B<d)B (c<A)B | G>AG GDD |
| DGG GFG | c>AG F2GA | (c<A)d (c<A)d | G>AG G2 :|
|| G \
| G=ff f2f | =fdd cAA | Ggg g^fg | a=fd d2(c/B/) |
| cde =fef | ecB A2(B/c/) | dcd (d/e/=f)(e/d/) | cAG G2 :|


